src/16/devices/camera-video.svg

<svg xmlns="http://www.w3.org/2000/svg" width="16" height="16"><defs><style id="current-color-scheme" type="text/css"></style></defs><path d="M4.5 0A2.495 2.495 0 0 0 2 2.5v11C2 14.885 3.115 16 4.5 16h8c1.385 0 2.5-1.115 2.5-2.5v-11C15 1.115 13.885 0 12.5 0h-8zM13 1a1 1 0 0 1 1 1 1 1 0 0 1-1 1 1 1 0 0 1-1-1 1 1 0 0 1 1-1zM.5 3c-.277 0-.5.223-.5.5v9a.499.499 0 1 0 1 0v-9C1 3.223.777 3 .5 3zm8 1A3.5 3.5 0 0 1 12 7.5 3.5 3.5 0 0 1 8.5 11 3.5 3.5 0 0 1 5 7.5 3.5 3.5 0 0 1 8.5 4zm0 1A2.5 2.5 0 0 0 6 7.5 2.5 2.5 0 0 0 8.5 10 2.5 2.5 0 0 0 11 7.5 2.5 2.5 0 0 0 8.5 5zm0 1A1.5 1.5 0 0 1 10 7.5 1.5 1.5 0 0 1 8.5 9 1.5 1.5 0 0 1 7 7.5 1.5 1.5 0 0 1 8.5 6zm-5 7a.5.5 0 0 1 .5.5.5.5 0 0 1-.5.5.5.5 0 0 1-.5-.5.5.5 0 0 1 .5-.5zm2 0a.5.5 0 0 1 .5.5.5.5 0 0 1-.5.5.5.5 0 0 1-.5-.5.5.5 0 0 1 .5-.5zm2 0a.5.5 0 0 1 .5.5.5.5 0 0 1-.5.5.5.5 0 0 1-.5-.5.5.5 0 0 1 .5-.5zm-3 1a.5.5 0 0 1 .5.5.5.5 0 0 1-.5.5.5.5 0 0 1-.5-.5.5.5 0 0 1 .5-.5zm2 0a.5.5 0 0 1 .5.5.5.5 0 0 1-.5.5.5.5 0 0 1-.5-.5.5.5 0 0 1 .5-.5z" fill="currentColor" color="#727272"/></svg>

<svg xmlns="http://www.w3.org/2000/svg" width="16" height="16" version="1.1">
 <defs>
  <style id="current-color-scheme" type="text/css">
   .ColorScheme-Text { color:#727272; } .ColorScheme-Highlight { color:#5294e2; }
  </style>
 </defs>
 <path style="fill:currentColor" class="ColorScheme-Text" d="M 4.5 0 C 3.115 0 2 1.115 2 2.5 L 2 13.5 C 2 14.885 3.115 16 4.5 16 L 12.5 16 C 13.885 16 15 14.885 15 13.5 L 15 2.5 C 15 1.115 13.885 0 12.5 0 L 4.5 0 z M 13 1 A 1 1 0 0 1 14 2 A 1 1 0 0 1 13 3 A 1 1 0 0 1 12 2 A 1 1 0 0 1 13 1 z M 0.5 3 C 0.223 3 0 3.223 0 3.5 L 0 12.5 C 0 12.777 0.223 13 0.5 13 C 0.777 13 1 12.777 1 12.5 L 1 3.5 C 1 3.223 0.777 3 0.5 3 z M 8.5 4 A 3.5 3.5 0 0 1 12 7.5 A 3.5 3.5 0 0 1 8.5 11 A 3.5 3.5 0 0 1 5 7.5 A 3.5 3.5 0 0 1 8.5 4 z M 8.5 5 A 2.5 2.5 0 0 0 6 7.5 A 2.5 2.5 0 0 0 8.5 10 A 2.5 2.5 0 0 0 11 7.5 A 2.5 2.5 0 0 0 8.5 5 z M 8.5 6 A 1.5 1.5 0 0 1 10 7.5 A 1.5 1.5 0 0 1 8.5 9 A 1.5 1.5 0 0 1 7 7.5 A 1.5 1.5 0 0 1 8.5 6 z M 3.5 13 A 0.5 0.5 0 0 1 4 13.5 A 0.5 0.5 0 0 1 3.5 14 A 0.5 0.5 0 0 1 3 13.5 A 0.5 0.5 0 0 1 3.5 13 z M 5.5 13 A 0.5 0.5 0 0 1 6 13.5 A 0.5 0.5 0 0 1 5.5 14 A 0.5 0.5 0 0 1 5 13.5 A 0.5 0.5 0 0 1 5.5 13 z M 7.5 13 A 0.5 0.5 0 0 1 8 13.5 A 0.5 0.5 0 0 1 7.5 14 A 0.5 0.5 0 0 1 7 13.5 A 0.5 0.5 0 0 1 7.5 13 z M 4.5 14 A 0.5 0.5 0 0 1 5 14.5 A 0.5 0.5 0 0 1 4.5 15 A 0.5 0.5 0 0 1 4 14.5 A 0.5 0.5 0 0 1 4.5 14 z M 6.5 14 A 0.5 0.5 0 0 1 7 14.5 A 0.5 0.5 0 0 1 6.5 15 A 0.5 0.5 0 0 1 6 14.5 A 0.5 0.5 0 0 1 6.5 14 z"/>
</svg>
